X: 112
T: Arzetmediğim Yâre Meğer...
C: Emin Ongan
O: Turkey
F: http://compmusic.upf.edu/node/140
N: huseyni--sarki--aksak--arzetmedigim--emin_ongan
N: makam= huseyni
N: form= sarki
N: usul= aksak = 9/8
M: 9/8
L: 1/16
K: C _2/4B ^3/4f  
Q: 1/4=132
%%MIDI tuningsystem comma53
z2g2 f2e2 e8 {=f}d2 | z2 g2f2 g2f2 {a}gfe6  | \
w:  Arz_ *  *  et  |  me *  di ğim   | 
z2=f4fe f3/2e/fg {a}gfed ^c2 | 
w:  yâ re  *  me *  *  *  *  ğer   | 
z2 d4 e2e2 d2g2 ^2/4f2{g}fe  | e6a2 ^g2ag =fed^c d2 | \
w:  ya re  mi  *  kal  |  dı    | 
z2 g2f2 g2f2 e8  | 
w:  ya *  re  mi  kal  | 
d2e4c2 d{e}dcB A6 | z2 g2f2 e2e8{=f}d2  | \
w:  dı   *  SAZ  |  Arz_ *  *  et  | 
z2g2 f2g2 f2{a}gf e6 | 
w:  me *  di ğim   | 
z2 =f4 fef3/2e/ fg{a}gf ed^c2  | z2d4e2 e2d2 g2^2/4f2 {g}fe | 
w:  yâ re  *  me *  *  *  *  ğer   |  ya re  mi  *  kal  | 
e6 a2^g2 ag=fe d^cd2  | z2g2 f2g2 f2e8 | \
w:  dı    |  ya *  re  mi  kal  | 
d2 e4 e=fed cde6  | 
w:  dı   *  SAZ  | 
z2a6 g2fe e6 | z2 fef2 g2f2 {a}gfe4d2  | \
w:  Ya  derd_  |  i  *  *  di le   | 
z2=f4fe f3/2e/fg {a}gfed c2 | 
w:  kıl ma *  dı *  *  *  *  ğım   | 
z2 d4 e2d2 cBe2 d2{e}dc  | B2c6 d4 e6 | \
w:  ça re  mi  *  *  kal  |  dı    | 
z2 efde fga2 =baag =fffe  | 
w:  ça *  *  *  re  *  mi  *  *  kal  | 
e6(3e^fg (3=fed^cd e6 | z2 ^cde^f gaa2 =baa4g^3/4f  | 
w:  dı   SAZ  |  Ya  *  *  *  *  *  derd_  | 
z2_1/4b2 g2gf gffe e6 | z2 ^ga=b2 ag=fe ebag fed2  | 
w:  i  *  di *  le   |  kıl *  *  ma *  dı *  *  *  ğım   | 
z2=f4fe e2d2 edcc cB | c8d4e6  | z2ag =fede (3c2B2d2 {c}B2A4 | 
w:  ça re  *  mi  *  kal  |  dı    |  ça *  *  *  re  *  mi  *  *  *  kal  | 
G2 A6B4c6  | z2c6 _3/4d4 e6 | z2 c_3/4dc=f edc=B ABc6  | \
w:  dı   *  SAZ  |  Bül bül  |  ne  *  *  *  a *  cep   | 
z2c4c2 =B2cB cBA^G A2 | 
w:  terk_ i  di *  *  yar   | 
z2 d4 e2e2 d2g2 f2{g}fe  | e6a2 ^g2ag =fed^c d2 | \
w:  ey le di  *  şim  |  di   | 
z2 g2f2 g2f2 e8  | 
w:  ey *  le di şim  | 
d2e4e=f edcd e6 | z2 a6g2 fee6  | z2fe f2g2 f2{a}gf e4 d2 | 
w:  di   SAZ  |  Ya  derd_  |  i  *  *  di le   | 
z2 =f4 fef3/2e/ fg{a}gf edc2  | z2d4e2 d2cB e2d2 {e}dc | 
w:  kıl ma *  dı *  *  *  *  ğım   |  ça re  mi  *  *  kal  | 
B2 c6d4e6  | z2ef defg a2=ba ag=ff fe | \
w:  dı    |  ça *  *  *  re  *  mi  *  *  kal  | 
e6 (3e^fg(3=fed ^cde6  | 
w:  dı   SAZ  | 
z2^cd e^fga a2=ba a4 g^3/4f | z2 _1/4b2g2 gfgf fee6  | 
w:  Ya  *  *  *  *  *  derd_  |  i  *  di *  le   | 
z2^ga =b2ag =feeb agfe d2 | z2 =f4 fee2 d2ed cccB  | 
w:  kıl *  *  ma *  dı *  *  *  ğım   |  ça re  *  mi  *  kal  | 
c8 d4 e6 | z2 ag=fe de(3c2B2d2{c}B2 A4  | \
w:  dı    |  ça *  *  *  re  *  mi  *  *  *  kal  | 
G2A6 |
w:  dı    | 


